static/img/kroki/bd5a98d6556df45051f65b79b4e3427a.svg

<?xml version="1.0" encoding="us-ascii" standalone="no"?><svg xmlns="http://www.w3.org/2000/svg" xmlns:xlink="http://www.w3.org/1999/xlink" contentStyleType="text/css" height="252px" preserveAspectRatio="none" style="width:405px;height:252px;" version="1.1" viewBox="0 0 405 252" width="405px" zoomAndPan="magnify"><defs/><g><!--class azure_availability_set--><g id="elem_azure_availability_set"><rect codeLine="22" fill="#3D176E" height="39.7891" id="azure_availability_set" rx="2.5" ry="2.5" style="stroke:#000D19;stroke-width:0.5;" width="223" x="170.5" y="7"/><ellipse cx="185.5" cy="26.8945" fill="#ADD1B2" rx="11" ry="11" style="stroke:#181818;stroke-width:1.0;"/><path d="M188.4688,32.5352 Q187.8906,32.832 187.25,32.9727 Q186.6094,33.1289 185.9063,33.1289 Q183.4063,33.1289 182.0781,31.4883 Q180.7656,29.832 180.7656,26.707 Q180.7656,23.582 182.0781,21.9258 Q183.4063,20.2695 185.9063,20.2695 Q186.6094,20.2695 187.25,20.4258 Q187.9063,20.582 188.4688,20.8789 L188.4688,23.5977 Q187.8438,23.0195 187.25,22.7539 Q186.6563,22.4727 186.0313,22.4727 Q184.6875,22.4727 184,23.5508 Q183.3125,24.6133 183.3125,26.707 Q183.3125,28.8008 184,29.8789 Q184.6875,30.9414 186.0313,30.9414 Q186.6563,30.9414 187.25,30.6758 Q187.8438,30.3945 188.4688,29.8164 L188.4688,32.5352 Z " fill="#000000"/><text fill="#D9B8FF" font-family="Helvetica" font-size="17" lengthAdjust="spacing" textLength="181" x="204.5" y="32.7798">azure_availability_set</text></g><!--class azure_proximity_placement_group--><g id="elem_azure_proximity_placement_group"><rect codeLine="24" fill="#3D176E" height="39.7891" id="azure_proximity_placement_group" rx="2.5" ry="2.5" style="stroke:#000D19;stroke-width:0.5;" width="332" x="7" y="106.79"/><ellipse cx="22" cy="126.6845" fill="#ADD1B2" rx="11" ry="11" style="stroke:#181818;stroke-width:1.0;"/><path d="M24.9688,132.3252 Q24.3906,132.622 23.75,132.7627 Q23.1094,132.9189 22.4063,132.9189 Q19.9063,132.9189 18.5781,131.2783 Q17.2656,129.622 17.2656,126.497 Q17.2656,123.372 18.5781,121.7158 Q19.9063,120.0595 22.4063,120.0595 Q23.1094,120.0595 23.75,120.2158 Q24.4063,120.372 24.9688,120.6689 L24.9688,123.3877 Q24.3438,122.8095 23.75,122.5439 Q23.1563,122.2627 22.5313,122.2627 Q21.1875,122.2627 20.5,123.3408 Q19.8125,124.4033 19.8125,126.497 Q19.8125,128.5908 20.5,129.6689 Q21.1875,130.7314 22.5313,130.7314 Q23.1563,130.7314 23.75,130.4658 Q24.3438,130.1845 24.9688,129.6064 L24.9688,132.3252 Z " fill="#000000"/><text fill="#D9B8FF" font-family="Helvetica" font-size="17" lengthAdjust="spacing" textLength="290" x="41" y="132.5698">azure_proximity_placement_group</text></g><!--class azure_virtual_machine--><g id="elem_azure_virtual_machine"><rect codeLine="26" fill="#3D176E" height="39.7891" id="azure_virtual_machine" rx="2.5" ry="2.5" style="stroke:#000D19;stroke-width:0.5;" width="233" x="165.5" y="206.58"/><ellipse cx="180.5" cy="226.4745" fill="#ADD1B2" rx="11" ry="11" style="stroke:#181818;stroke-width:1.0;"/><path d="M183.4688,232.1152 Q182.8906,232.412 182.25,232.5527 Q181.6094,232.7089 180.9063,232.7089 Q178.4063,232.7089 177.0781,231.0683 Q175.7656,229.412 175.7656,226.287 Q175.7656,223.162 177.0781,221.5058 Q178.4063,219.8495 180.9063,219.8495 Q181.6094,219.8495 182.25,220.0058 Q182.9063,220.162 183.4688,220.4589 L183.4688,223.1777 Q182.8438,222.5995 182.25,222.3339 Q181.6563,222.0527 181.0313,222.0527 Q179.6875,222.0527 179,223.1308 Q178.3125,224.1933 178.3125,226.287 Q178.3125,228.3808 179,229.4589 Q179.6875,230.5214 181.0313,230.5214 Q181.6563,230.5214 182.25,230.2558 Q182.8438,229.9745 183.4688,229.3964 L183.4688,232.1152 Z " fill="#000000"/><text fill="#D9B8FF" font-family="Helvetica" font-size="17" lengthAdjust="spacing" textLength="191" x="199.5" y="232.3598">azure_virtual_machine</text></g><!--link azure_availability_set to azure_proximity_placement_group--><g id="link_azure_availability_set_azure_proximity_placement_group"><path codeLine="28" d="M260.47,47.22 C241.36,64.36 218.0556,85.2627 198.9556,102.4027 " fill="none" id="azure_availability_set-to-azure_proximity_placement_group" style="stroke:#1A83AF;stroke-width:2.0;"/><polygon fill="#1A83AF" points="194.49,106.41,203.8599,103.3761,198.2113,103.0706,198.5168,97.422,194.49,106.41" style="stroke:#1A83AF;stroke-width:2.0;"/></g><!--link azure_availability_set to azure_virtual_machine--><g id="link_azure_availability_set_azure_virtual_machine"><path codeLine="29" d="M308.23,47.06 C325.41,61.35 346.4,82.52 356,106.79 C362.51,123.24 362.51,130.14 356,146.58 C346.4,170.85 330.0242,188.1947 312.8442,202.4747 " fill="none" id="azure_availability_set-to-azure_virtual_machine" style="stroke:#1A83AF;stroke-width:2.0;"/><polygon fill="#1A83AF" points="308.23,206.31,317.7081,203.6332,312.0751,203.1139,312.5944,197.481,308.23,206.31" style="stroke:#1A83AF;stroke-width:2.0;"/></g><!--link azure_proximity_placement_group to azure_virtual_machine--><g id="link_azure_proximity_placement_group_azure_virtual_machine"><path codeLine="30" d="M194.53,147.01 C213.64,164.15 236.9444,185.0527 256.0444,202.1927 " fill="none" id="azure_proximity_placement_group-to-azure_virtual_machine" style="stroke:#1A83AF;stroke-width:2.0;"/><polygon fill="#1A83AF" points="260.51,206.2,256.4832,197.212,256.7887,202.8606,251.1401,203.1661,260.51,206.2" style="stroke:#1A83AF;stroke-width:2.0;"/></g><!--SRC=[bPBBQi9058RtFiM0Qy5KMdLJI0LfDr9gTwM4ayo96PnBE7EYrT9thx4NngGQkft_uxySfb0I1PgITyAWIP5ypw-LBO70Y9Z8RMTEEnBzF8TyD6wASsUv4rY0GN6FUeEiCcWIpuNArXQz5rU1T0VPUaMkilBBdWciFqXeEQ1c6hoFcKcb5MDGHaxJIPutoQPfVoIZyGssC4SIwHiP3eSocZQHpgYBkt-9fTgZYCAZBHnZgsOhuaXTR5aJGSdMq1_zRCT7a5BPbRWEtfw-Ef55EdbV5Y3TjgPpq3wCyOo4ZdSbpbghS3gH-VXF-E4SdDMN4x2l21FOWDAGAgrubtXayTxxE05ASc_Ar6gf8KDp-3j9RLgso8qYha0d1h92MJpgPq86B_qedepY-UlWjYld7nwD1hsk1TqMdm00]--></g></svg>

<svg xmlns="http://www.w3.org/2000/svg" width="405" height="252" viewBox="0 0 405 252"><rect width="223" height="39.789" x="170.5" y="7" fill="#3D176E" rx="2.5" ry="2.5" style="stroke:#000d19;stroke-width:.5"/><circle cx="185.5" cy="26.895" r="11" fill="#ADD1B2" style="stroke:#181818;stroke-width:1"/><path d="M188.469 32.535q-.578.297-1.219.438-.64.156-1.344.156-2.5 0-3.828-1.64-1.312-1.657-1.312-4.782t1.312-4.781q1.328-1.656 3.828-1.656.703 0 1.344.156.656.156 1.219.453v2.719q-.625-.578-1.219-.844-.594-.281-1.219-.281-1.344 0-2.031 1.078-.687 1.062-.687 3.156t.687 3.172q.688 1.062 2.031 1.062.625 0 1.219-.265.594-.281 1.219-.86z"/><text x="204.5" y="32.78" fill="#D9B8FF" font-family="Helvetica" font-size="17" textLength="181">azure_availability_set</text><rect width="332" height="39.789" x="7" y="106.79" fill="#3D176E" rx="2.5" ry="2.5" style="stroke:#000d19;stroke-width:.5"/><circle cx="22" cy="126.684" r="11" fill="#ADD1B2" style="stroke:#181818;stroke-width:1"/><path d="M24.969 132.325q-.578.297-1.219.438-.64.156-1.344.156-2.5 0-3.828-1.64-1.312-1.657-1.312-4.782t1.312-4.781q1.328-1.656 3.828-1.656.703 0 1.344.156.656.156 1.219.453v2.719q-.625-.579-1.219-.844-.594-.281-1.219-.281-1.343 0-2.031 1.078-.687 1.062-.687 3.156t.687 3.172q.688 1.062 2.031 1.062.625 0 1.219-.265.594-.281 1.219-.86z"/><text x="41" y="132.57" fill="#D9B8FF" font-family="Helvetica" font-size="17" textLength="290">azure_proximity_placement_group</text><rect width="233" height="39.789" x="165.5" y="206.58" fill="#3D176E" rx="2.5" ry="2.5" style="stroke:#000d19;stroke-width:.5"/><circle cx="180.5" cy="226.475" r="11" fill="#ADD1B2" style="stroke:#181818;stroke-width:1"/><path d="M183.469 232.115q-.578.297-1.219.438-.64.156-1.344.156-2.5 0-3.828-1.64-1.312-1.657-1.312-4.782t1.312-4.781q1.328-1.656 3.828-1.656.703 0 1.344.156.656.156 1.219.453v2.719q-.625-.578-1.219-.844-.594-.281-1.219-.281-1.344 0-2.031 1.078-.687 1.062-.687 3.156t.687 3.172q.688 1.062 2.031 1.062.625 0 1.219-.265.594-.281 1.219-.86z"/><text x="199.5" y="232.36" fill="#D9B8FF" font-family="Helvetica" font-size="17" textLength="191">azure_virtual_machine</text><path fill="none" d="M260.47 47.22c-19.11 17.14-42.414 38.043-61.514 55.183" style="stroke:#1a83af;stroke-width:2"/><path fill="#1A83AF" d="m194.49 106.41 9.37-3.034-5.649-.305.306-5.649z" style="stroke:#1a83af;stroke-width:2"/><path fill="none" d="M308.23 47.06c17.18 14.29 38.17 35.46 47.77 59.73 6.51 16.45 6.51 23.35 0 39.79-9.6 24.27-25.976 41.615-43.156 55.895" style="stroke:#1a83af;stroke-width:2"/><path fill="#1A83AF" d="m308.23 206.31 9.478-2.677-5.633-.52.52-5.632z" style="stroke:#1a83af;stroke-width:2"/><path fill="none" d="M194.53 147.01c19.11 17.14 42.414 38.043 61.514 55.183" style="stroke:#1a83af;stroke-width:2"/><path fill="#1A83AF" d="m260.51 206.2-4.027-8.988.306 5.649-5.649.305z" style="stroke:#1a83af;stroke-width:2"/></svg>
